public/icon/svg/Git.svg

<?xml version="1.0" encoding="UTF-8"?>
<svg width="1025px" height="1024px" viewBox="0 0 1025 1024" version="1.1" xmlns="http://www.w3.org/2000/svg" xmlns:xlink="http://www.w3.org/1999/xlink">
    <title>Git</title>
    <defs>
        <polygon id="path-1" points="0 0 740 0 740 740 0 740"></polygon>
    </defs>
    <g id="ICON-新版方图标" stroke="none" stroke-width="1" fill="none" fill-rule="evenodd">
        <g id="Git" transform="translate(0.061, 0)">
            <rect id="蒙版路径" fill="#FFFFFF" x="0" y="0" width="1024" height="1024"></rect>
            <g id="编组" transform="translate(142, 142)">
                <mask id="mask-2" fill="white">
                    <use xlink:href="#path-1"></use>
                </mask>
                <g id="路径"></g>
                <path d="M726.059617,337.049637 L402.958416,13.9725968 C394.019585,5.02802877 381.892484,0.0025402871 369.24701,0.0025402871 C356.601536,0.0025402871 344.474435,5.02802877 335.535604,13.9725968 L268.467139,81.0732748 L353.559045,166.165181 C373.966911,159.234381 396.539871,164.492038 411.78491,179.727056 C427.118182,195.076092 432.337892,217.834529 425.225984,238.331429 L507.265663,320.346948 C527.768831,313.225715 550.538578,318.456687 565.878089,333.812182 C576.512907,344.445 582.487654,358.867395 582.487654,373.905884 C582.487654,388.944373 576.512907,403.366769 565.878089,413.999586 C543.710385,436.14416 507.793962,436.14416 485.626258,413.999586 C469.455185,397.802037 464.602133,373.473255 473.320709,352.310773 L396.813695,275.827919 L396.813695,477.138006 C413.196721,485.23091 424.674913,500.723898 427.645287,518.753749 C430.615661,536.783599 424.714051,555.139868 411.792963,568.060553 C401.160146,578.695371 386.73775,584.670117 371.699261,584.670117 C356.660772,584.670117 342.238376,578.695371 331.605559,568.060553 C320.968277,557.427409 314.991967,543.003287 314.991967,527.962824 C314.991967,512.922361 320.968277,498.498239 331.605559,487.865095 C336.911187,482.548694 343.217601,478.336207 350.160523,475.470959 L350.160523,272.308596 C336.195197,266.556317 325.097888,255.475979 319.324242,241.519473 C313.550595,227.562967 313.576654,211.88102 319.39665,197.943779 L235.496643,114.027664 L13.9323299,335.535604 C-4.65794745,354.162352 -4.65794745,384.323614 13.9323299,402.950363 L337.049637,726.06767 C355.675458,744.65259 385.830522,744.65259 404.456343,726.06767 L726.059617,404.464396 C744.649894,385.837648 744.649894,355.676386 726.059617,337.049637" id="路径" fill="#F03C2E" fill-rule="nonzero" mask="url(#mask-2)"></path>
            </g>
        </g>
    </g>
</svg>

<svg xmlns="http://www.w3.org/2000/svg" xmlns:xlink="http://www.w3.org/1999/xlink" width="1025" height="1024"><defs><path id="a" d="M0 0h740v740H0z"/></defs><g fill="none" fill-rule="evenodd"><path fill="#FFF" d="M.061 0h1024v1024H.061z"/><g transform="translate(142.061 142)"><mask id="b" fill="#fff"><use xlink:href="#a"/></mask><path fill="#F03C2E" fill-rule="nonzero" d="M726.06 337.05 402.958 13.973a47.66 47.66 0 0 0-67.422 0l-67.069 67.1 85.092 85.092a56.615 56.615 0 0 1 58.226 13.562 56.647 56.647 0 0 1 13.441 58.604l82.04 82.016a56.6 56.6 0 0 1 58.612 13.465 56.696 56.696 0 0 1 0 80.188c-22.168 22.144-58.084 22.144-80.252 0-16.17-16.198-21.024-40.527-12.305-61.69l-76.507-76.482v201.31a56.696 56.696 0 0 1 14.979 90.923 56.696 56.696 0 0 1-80.187 0 56.696 56.696 0 0 1 0-80.196 56.857 56.857 0 0 1 18.555-12.394V272.309a56.768 56.768 0 0 1-30.764-74.365l-83.9-83.916L13.932 335.536c-18.59 18.626-18.59 48.788 0 67.414L337.05 726.068c18.625 18.585 48.78 18.585 67.406 0L726.06 404.464c18.59-18.626 18.59-48.788 0-67.414" mask="url(#b)"/></g></g></svg>
